svg/UnitedNationsOCHA-Humanitarian/product_type_table_icon_box.svg

<svg xmlns="http://www.w3.org/2000/svg" viewBox="0 0 32 32" enable-background="new 0 0 32 32"><path fill="#407cca" d="m26.359 22.463h-6.388v-3.979h6.388v3.979m0 .493h-6.388v3.403h6.388v-3.403m0-12.844h-5.813-.575v3.406h6.388v-3.406m0 3.897h-6.388v3.985h6.388v-3.985m-6.88 0h-6.959v3.985h6.959v-3.985m-7.451 8.947h-6.387v3.403h6.388v-3.403m-.0001-4.472h-6.387v3.979h6.388v-3.979m19.971-12.08v19.2c0 3.521-2.88 6.4-6.4 6.4h-19.2c-3.52 0-6.4-2.88-6.4-6.4v-19.2c0-3.52 2.88-6.4 6.4-6.4h19.2c3.52 0 6.4 2.88 6.4 6.4m-4-2.4h-24v24h24v-24m-15.972 10.01h-6.387v3.985h6.388v-3.985m7.45 4.475h-6.959v3.979h6.959v-3.979m0 4.472h-6.959v3.403h6.959v-3.403m-7.451-12.844h-.575-5.812v3.406h6.388v-3.406m7.45 0h-.573-5.813-.573v3.406h6.959v-3.406"/></svg>

<?xml version="1.0" encoding="utf-8"?>
<!-- Generator: Adobe Illustrator 16.0.3, SVG Export Plug-In . SVG Version: 6.00 Build 0)  -->
<!DOCTYPE svg PUBLIC "-//W3C//DTD SVG 1.1//EN" "http://www.w3.org/Graphics/SVG/1.1/DTD/svg11.dtd">
<svg version="1.1" id="Layer_1" xmlns="http://www.w3.org/2000/svg" xmlns:xlink="http://www.w3.org/1999/xlink" x="0px" y="0px"
	 width="32px" height="32px" viewBox="0 0 32 32" enable-background="new 0 0 32 32" xml:space="preserve">
<path fill="#407CCA" d="M26.359,22.463h-6.388v-3.979h6.388V22.463z M26.359,22.956h-6.388v3.403h6.388V22.956z M26.359,10.112
	h-5.813h-0.575v3.406h6.388V10.112z M26.359,14.009h-6.388v3.985h6.388V14.009z M19.479,14.009h-6.959v3.985h6.959V14.009z
	 M12.028,22.956H5.641v3.403h6.388V22.956z M12.028,18.484H5.641v3.979h6.388V18.484z M32,6.4v19.2c0,3.521-2.88,6.4-6.4,6.4H6.4
	C2.88,32,0,29.12,0,25.6V6.4C0,2.88,2.88,0,6.4,0h19.2C29.12,0,32,2.88,32,6.4z M28,4H4v24h24V4z M12.028,14.009H5.641v3.985h6.388
	V14.009z M19.479,18.484h-6.959v3.979h6.959V18.484z M19.479,22.956h-6.959v3.403h6.959V22.956z M12.028,10.112h-0.575H5.641v3.406
	h6.388V10.112z M19.479,10.112h-0.573h-5.813h-0.573v3.406h6.959V10.112z"/>
</svg>
